dist/svg/object-based/wikis_128.svg

<svg xmlns="http://www.w3.org/2000/svg" viewBox="0 0 128 128"><path d="M64 8C33.07 8 8 33.07 8 64s25.07 56 56 56 56-25.07 56-56S94.93 8 64 8zm19.754 72.926L66.828 64l32.526-32.526c2.23 18.62-3.348 36.354-15.6 49.452zM44.246 47.074L61.172 64 28.646 96.526c-2.23-18.62 3.348-36.354 15.6-49.452zm2.82-2.835c11.104-10.373 25.81-16.075 41.662-16.075 2.595 0 5.21.157 7.815.464L64 61.17 47.066 44.24zM64 66.827l16.934 16.934C69.83 94.135 55.124 99.836 39.276 99.836c-2.596 0-5.214-.157-7.82-.465L64 66.83zm34.102-42.034c-3.12-.417-6.26-.63-9.374-.63-16.92 0-32.63 6.12-44.49 17.246L28.696 25.867C37.975 17.27 50.38 12 64 12c13.04 0 24.965 4.836 34.102 12.794zM12 64c0-13.618 5.27-26.024 13.867-35.305l15.53 15.53c-13.176 14.07-19.26 33.882-16.595 53.886C16.84 88.974 12 77.045 12 64zm17.898 39.207c3.12.416 6.263.63 9.378.63.002 0 0 0 0 0 16.917 0 32.627-6.12 44.485-17.247l15.544 15.543C90.024 110.73 77.62 116 64 116c-13.04 0-24.964-4.836-34.102-12.793zm72.235-3.902l-15.53-15.532c13.177-14.068 19.26-33.88 16.596-53.885C111.16 39.028 116 50.956 116 64c0 13.618-5.27 26.024-13.867 35.305z"/></svg>

<?xml version="1.0" encoding="iso-8859-1"?>
<!-- Generator: Adobe Illustrator 20.0.0, SVG Export Plug-In . SVG Version: 6.00 Build 0)  -->
<svg version="1.1" id="Layer_1" xmlns="http://www.w3.org/2000/svg" xmlns:xlink="http://www.w3.org/1999/xlink" x="0px" y="0px"
	 viewBox="0 0 128 128" style="enable-background:new 0 0 128 128;" xml:space="preserve">
<path d="M64,8C33.07,8,8,33.07,8,64s25.07,56,56,56s56-25.07,56-56S94.93,8,64,8z M83.754,80.926L66.828,64l32.526-32.526
	C101.583,50.094,96.006,67.828,83.754,80.926z M44.246,47.074L61.172,64L28.646,96.526C26.417,77.906,31.994,60.172,44.246,47.074z
	 M47.066,44.239C58.17,33.867,72.877,28.165,88.728,28.165c2.595,0,5.21,0.157,7.815,0.464L64,61.172L47.066,44.239z M64,66.828
	l16.934,16.934C69.829,94.135,55.125,99.836,39.276,99.836c-2.596,0-5.214-0.157-7.819-0.465L64,66.828z M98.102,24.794
	c-3.119-0.417-6.26-0.629-9.374-0.629c-16.921,0-32.631,6.118-44.489,17.245L28.695,25.867C37.976,17.27,50.381,12,64,12
	C77.04,12,88.965,16.836,98.102,24.794z M12,64c0-13.618,5.269-26.024,13.867-35.305l15.531,15.531
	C28.221,58.295,22.138,78.107,24.802,98.111C16.839,88.973,12,77.044,12,64z M29.898,103.207c3.121,0.416,6.263,0.629,9.378,0.629
	c0.002,0,0,0,0.001,0c16.916,0,32.626-6.119,44.484-17.246l15.543,15.543C90.024,110.73,77.619,116,64,116
	C50.96,116,39.036,111.164,29.898,103.207z M102.133,99.305L86.602,83.773c13.178-14.068,19.261-33.881,16.597-53.885
	C111.161,39.027,116,50.956,116,64C116,77.618,110.73,90.024,102.133,99.305z"/>
</svg>
